X: 2705
T: Banks Of Lough Gowna, The
R: jig
M: 6/8
K: Gmajor
AB|:cAB cBc|dcd ede|~A3 cde|dcA AGE|
cAB cBc|dcd ~e3|~a3 ged|1 cAG A2 B:|2 cAG A2d||
|:eaa aba|gef ~g3|eaa aba|ged cAA|
eaa eaa|gef ~g3|~a3 ged|cAG A2d:|

